src/assets/icon/arrow_forward.svg

<svg width="13" height="12" viewBox="0 0 13 12" fill="none" xmlns="http://www.w3.org/2000/svg">
<path d="M10.8558 6.62501H1.375C1.19764 6.62501 1.04917 6.56514 0.929583 6.44542C0.809861 6.32584 0.75 6.17737 0.75 6.00001C0.75 5.82264 0.809861 5.67417 0.929583 5.55459C1.04917 5.43487 1.19764 5.37501 1.375 5.37501H10.8558L6.54812 1.0673C6.42424 0.943408 6.36306 0.798408 6.36458 0.632297C6.36625 0.466186 6.43167 0.318478 6.56083 0.189173C6.69014 0.0684785 6.83653 0.00597852 7 0.00167296C7.16347 -0.00263259 7.30986 0.0598674 7.43917 0.189173L12.7227 5.47271C12.8008 5.55077 12.8558 5.63306 12.8877 5.71959C12.9198 5.80612 12.9358 5.89959 12.9358 6.00001C12.9358 6.10042 12.9198 6.19389 12.8877 6.28042C12.8558 6.36695 12.8008 6.44924 12.7227 6.5273L7.43917 11.8108C7.32375 11.9263 7.18083 11.9853 7.01042 11.9879C6.84 11.9906 6.69014 11.9315 6.56083 11.8108C6.43167 11.6815 6.36708 11.5331 6.36708 11.3654C6.36708 11.1976 6.43167 11.0491 6.56083 10.9198L10.8558 6.62501Z" fill="black"/>
</svg>

<svg xmlns="http://www.w3.org/2000/svg" width="13" height="12" fill="none" xmlns:v="https://vecta.io/nano"><path d="M10.856 6.625H1.375c-.177 0-.326-.06-.445-.18S.75 6.177.75 6s.06-.326.18-.445.268-.18.445-.18h9.481L6.548 1.067C6.424.943 6.363.798 6.365.632a.62.62 0 0 1 .196-.443C6.69.068 6.837.006 7 .002s.31.058.439.188l5.284 5.284a.69.69 0 0 1 .165.247.8.8 0 0 1 .048.28.8.8 0 0 1-.048.28.69.69 0 0 1-.165.247l-5.284 5.284c-.115.115-.258.175-.429.177s-.32-.056-.45-.177c-.129-.129-.194-.278-.194-.445s.065-.316.194-.446l4.295-4.295z" fill="#000"/></svg>
